static/icons/twitch.svg

<svg xmlns="http://www.w3.org/2000/svg" viewBox="0 0 24 24" fill="currentColor"><path d="M4.30098 3H21.001V14.7L16.301 19.4H12.401L9.90098 21.8H7.00098V19.4H3.00098V6.2L4.30098 3ZM5.00098 17.4H9.00098V19.8H9.09636L11.5964 17.4H15.4725L19.001 13.8716V5H5.00098V17.4ZM15.001 8H17.001V12.7H15.001V8ZM15.001 8H17.001V12.7H15.001V8ZM10.001 8H12.001V12.7H10.001V8Z"></path></svg>

<svg xmlns="http://www.w3.org/2000/svg" fill="currentColor" viewBox="0 0 24 24"><path d="M4.3 3H21v11.7l-4.7 4.7h-3.9l-2.5 2.4H7v-2.4H3V6.2zM5 17.4h4v2.4h.1l2.5-2.4h3.9l3.5-3.5V5H5zM15 8h2v4.7h-2zm0 0h2v4.7h-2zm-5 0h2v4.7h-2z"/></svg>
